X:1
T: The Coming Dawn
C: Keith Murphy
R: jig
Z: 2012 John Chambers <jc:trillian.mit.edu>
S: handout at Roaring Jelly practice
B: Keith Murphy "Black Isle Music I" p.11 2001
M: 6/8
L: 1/8
K: G
A |\
"G"BAG EDB, | "Bm"D3 DB,D | "C"EGE "G/B"DB,D | "A7"EFG "D"ABc |
"G"BAG EDB, | "Bm"D3 DB,D | "C"EGE "G/B"DB,D | "D"EGF "G"G2 :|
|: A |\
"G"B2d dBd | "C"edB AGA | "Em"BAG EDB, | "Bm"D3 DB,D |
"C"E3 "Am"EDB, | "D"GFG "D#dim"A3 | "Em"Bed "G/D"BAG | "C"AGF "Dsus"G2 :|
